X:1
T:Title
%%score 1 2
L:1/8
Q:1/4=92
M:3/4
K:Db
V:1 treble nm="Grand Piano, Soprano"
V:2 bass nm="Choir Pad, Amarillo, Hubert P. Main"
V:1
 [DF]2 [DF]>[DF] [CE][DF] | [CA][CG] [CG]4 | [CE]2 [DF][FA] [Gd][GB] | [FA][DF] [DF]2 [CE]2 | %4
w: By~Hubert~Platt~Main,~1894 * * * *||||
 [DF]2 [DF]>[DF] [CE][DF] | [CA][CG] [CG]4 | [CG]2 [CG]>[EG] [DF][DG] | [DB][DA] [DA]4 | %8
w: ||||
 [Ad]2 [Gd]>[Gd] [Gd][Bd] | [Ac][GB] [GB]2 [FA]2 | [DA]2 [DA][DG] [DF]D | [CF][CE] D4- | D4 z2 |] %13
w: |||||
V:2
 [D,A,]2 [D,A,]>[D,A,] [G,A,][F,A,] | [E,A,][E,A,] [E,A,]4 | [A,,A,]2 [D,A,][D,D] [D,B,][D,D] | %3
 [D,D][=G,B,] A,4 | [D,A,]2 [D,A,]>[D,A,] [G,A,][F,A,] | [E,A,][E,A,] [E,A,]4 | %6
 [E,A,]2 [A,,A,]>[C,A,] [D,A,][D,B,] | [D,G,][D,F,] [D,F,]4 | [F,C]2 [G,B,]>[G,B,] [G,B,][G,B,] | %9
 [G,C][G,D] [D,D]4 | [F,C]2 [G,B,][G,=A,] [D,_A,][=A,,=G,] | [A,,A,][A,,G,] [D,F,]4- | %12
 [D,F,]4 z2 |] %13

